X:1
T:Djibouti, 87.87 D
T:Djibouti, 87.87 D
T:Willard P. Morris, 1895
T:Public Domain Courtesy of the Cyber Hymnal™
C:Willard P. Morris, 1895
Z:Public Domain
Z:Courtesy of the Cyber Hymnal™
%%score ( 1 2 ) ( 3 4 )
L:1/8
Q:1/4=95
M:6/8
K:Ab
V:1 treble 
V:2 treble 
V:3 bass 
V:4 bass 
V:1
 [CE] x6 | [CE][DF][CE] [Ec]2 [EA] | [EA]3 [EG]2 EE[EG][EB] [Ed]2 [EG] | [EA]3- [EA]2 [CE] | %4
 [CE][EA][Ec] [Ee]2 [_Ge] | [Fe]3 [Fd]2 [FB] | (AG)[EA] [Ec]2 [DB] | [CA]3- [CA]2 c | %8
 (z2 [Ee]2) [Ed] x | [Ec]3- [Ec]2 A | B2 B (BA)[_DF] | E3- E2 [DE] | [CE][EA][Ec] [Ee]2 [_Ge] | %13
 [Fe]3 [Fd]2 [FB] | (AG)[EA] [Ec]2 [DB] | [CA]3- [CA]2 |] %16
V:2
 x7 | x6 | x5 EE x5 | x6 | x6 | x6 | E2 x4 | x6 | e3- E x2 | x5 A | B2 B =D2 x | E3- E2 x | x6 | %13
 x6 | E2 x4 | x5 |] %16
V:3
 [A,,A,][A,,A,][A,,A,] [A,,A,] [A,,A,]2 [A,,C] | [E,C]3 [E,B,]2 [E,G,] | %2
 [E,G,][E,B,][E,G,] [E,B,]2 [E,D] x6 | [A,C]3- [A,C]2 A, | A,[A,C]A, [C,A,]2 [C,A,] | %5
 [D,A,]3 [D,A,]2 [D,D] | (CB,)[E,C] [E,A,]2 [E,G,] | [A,,A,]3- [A,,A,]2 z | %8
 z2 ([E,G,] [E,G,][F,A,])[G,B,] | A,2 ([A,,A,] [A,,A,]2) [A,,A,] | %10
 [B,,B,]2 [B,,B,] [B,,F,]2 [B,,A,] | [E,G,]2 [F,A,] [G,B,]2 [G,B,] | A,[A,C]A, [C,A,]2 [C,A,] | %13
 [D,A,]3 [D,A,]2 [D,D] | (CB,)[E,C] [E,A,]2 [E,G,] | [A,,A,]3- [A,,A,]2 |] %16
V:4
 x7 | x6 | x12 | x5 A, | A,A, x4 | x6 | E,2 x4 | x6 | x6 | A,2 x4 | x6 | x6 | A,A, x4 | x6 | %14
 E,2 x4 | x5 |] %16

